status/symbolic/battery-good-symbolic.svg

<svg enable-background="new" height="16" width="16" xmlns="http://www.w3.org/2000/svg">
  <g enable-background="new" fill="#bebebe" transform="translate(-2.98305 -10.238054)">
    <path d="m5.5006276 14.727523c-.2858733 0-.5175781.232548-.5175781.517578v5.984376c0 .286305.2317048.517577.5175781.517577h10.0410174c.28628 0 .517578-.231702.517578-.517577v-1.062501h.40625c.286289 0 .517579-.23045.517579-.517578v-2.779297c.000446-.286285-.231292-.519531-.517579-.519531h-.40625v-1.105469c0-.28503-.231275-.517578-.517578-.517578zm.8300779.839843h8.1093765c.251831 0 .457033.201294.457032.453125v4.433595c0 .251829-.205201.453125-.457032.453125h-8.1093765c-.2518311 0-.4531242-.201296-.4531251-.453125v-4.433595c0-.251831.201294-.453125.4531251-.453125z" stroke-width=".857143" />
    <path d="m11.98305 15.566406-5.79555.002c-.1724744 0-.3105469.201293-.3105469.453125v4.433594c.0000001.251832.1380725.453131.3105469.453125h5.79555z" fill-opacity=".666667" stroke-width=".70935" />
    <g stroke-width=".709339" transform="translate(2.98305 10.238054)">
      <path d="m9 5.3300781v5.3398439h2.607422c.172478.000006.310547-.201298.310547-.453125v-4.4335939c0-.251829-.138075-.453125-.310547-.453125z" fill-opacity=".156863" />
      <path d="m5.8125 5.328125v.0019531l1.59375-.0019531z" fill-opacity=".666667" />
    </g>
  </g>
</svg>

<?xml version="1.0" encoding="UTF-8" standalone="no"?>
<!-- Created with Inkscape (http://www.inkscape.org/) -->

<svg
   xmlns:dc="http://purl.org/dc/elements/1.1/"
   xmlns:cc="http://creativecommons.org/ns#"
   xmlns:rdf="http://www.w3.org/1999/02/22-rdf-syntax-ns#"
   xmlns:svg="http://www.w3.org/2000/svg"
   xmlns="http://www.w3.org/2000/svg"
   xmlns:sodipodi="http://sodipodi.sourceforge.net/DTD/sodipodi-0.dtd"
   xmlns:inkscape="http://www.inkscape.org/namespaces/inkscape"
   id="svg7384"
   style="enable-background:new"
   height="16"
   width="16"
   version="1.1"
   inkscape:version="0.92.1 r15371"
   sodipodi:docname="battery-good-symbolic.svg">
  <sodipodi:namedview
     pagecolor="#a1a1a1"
     bordercolor="#666666"
     borderopacity="1"
     objecttolerance="10"
     gridtolerance="10"
     guidetolerance="10"
     inkscape:pageopacity="0"
     inkscape:pageshadow="2"
     inkscape:window-width="1600"
     inkscape:window-height="840"
     id="namedview11"
     showgrid="false"
     inkscape:zoom="64"
     inkscape:cx="7.0067793"
     inkscape:cy="8.2397331"
     inkscape:window-x="0"
     inkscape:window-y="32"
     inkscape:window-maximized="1"
     inkscape:current-layer="g1403" />
  <metadata
     id="metadata90">
    <rdf:RDF>
      <cc:Work
         rdf:about="">
        <dc:format>image/svg+xml</dc:format>
        <dc:type
           rdf:resource="http://purl.org/dc/dcmitype/StillImage" />
        <dc:title>Paper Symbolic Icon Theme</dc:title>
      </cc:Work>
    </rdf:RDF>
  </metadata>
  <title
     id="title8473">Paper Symbolic Icon Theme</title>
  <defs
     id="defs7386">
    <filter
       id="filter7554"
       style="color-interpolation-filters:sRGB">
      <feBlend
         id="feBlend7556"
         in2="BackgroundImage"
         mode="darken" />
    </filter>
  </defs>
  <g
     style="fill:#ffffff;fill-opacity:1;enable-background:new"
     transform="matrix(0.00985356,0,0,0.00985356,-11.835795,29.075907)"
     id="g3-9-36">
    <g
       style="fill:#ffffff;fill-opacity:1"
       id="g5-4-7" />
  </g>
  <g
     style="fill:#ffffff;fill-opacity:1;enable-background:new"
     transform="matrix(0.00985356,0,0,0.00985356,20.610377,28.638565)"
     id="g3-9-3">
    <g
       style="fill:#ffffff;fill-opacity:1"
       id="g5-4-6" />
  </g>
  <g
     style="enable-background:new"
     id="g1403"
     transform="translate(-2.9830495,-10.238054)">
    <g
       id="g7312">
      <path
         inkscape:connector-curvature="0"
         style="fill:#bebebe;fill-opacity:1;stroke-width:0.85714281;enable-background:new"
         d="m 5.5006276,14.727523 c -0.2858733,0 -0.5175781,0.232548 -0.5175781,0.517578 v 5.984376 c 0,0.286305 0.2317048,0.517577 0.5175781,0.517577 H 15.541645 c 0.28628,0 0.517578,-0.231702 0.517578,-0.517577 v -1.062501 h 0.40625 c 0.286289,0 0.517579,-0.23045 0.517579,-0.517578 V 16.870101 C 16.983498,16.583816 16.75176,16.35057 16.465473,16.35057 h -0.40625 v -1.105469 c 0,-0.28503 -0.231275,-0.517578 -0.517578,-0.517578 z m 0.8300779,0.839843 h 8.1093765 c 0.251831,0 0.457033,0.201294 0.457032,0.453125 v 4.433595 c 0,0.251829 -0.205201,0.453125 -0.457032,0.453125 H 6.3307055 c -0.2518311,0 -0.4531242,-0.201296 -0.4531251,-0.453125 v -4.433595 c 0,-0.251831 0.201294,-0.453125 0.4531251,-0.453125 z"
         id="path854-3" />
      <g
         id="g7306">
        <path
           id="path1390"
           d="m 11.98305,15.566406 -5.79555,0.002 c -0.1724744,0 -0.3105469,0.201293 -0.3105469,0.453125 v 4.433594 c 1e-7,0.251832 0.1380725,0.453131 0.3105469,0.453125 h 5.79555 z"
           style="fill:#bebebe;fill-opacity:0.66666667;stroke-width:0.70935035;enable-background:new"
           inkscape:connector-curvature="0"
           sodipodi:nodetypes="ccssccc" />
        <path
           style="fill:#bebebe;fill-opacity:0.15686275;stroke-width:0.70933914;enable-background:new"
           d="M 9 5.3300781 L 9 10.669922 L 11.607422 10.669922 C 11.7799 10.669928 11.917969 10.468624 11.917969 10.216797 L 11.917969 5.7832031 C 11.917969 5.5313741 11.779894 5.3300781 11.607422 5.3300781 L 9 5.3300781 z "
           id="path10439"
           transform="translate(2.9830495,10.238054)" />
      </g>
    </g>
    <path
       style="fill:#bebebe;fill-opacity:0.66666667;stroke-width:0.70933914;enable-background:new"
       d="M 5.8125 5.328125 L 5.8125 5.3300781 L 7.40625 5.328125 L 5.8125 5.328125 z "
       id="path10432"
       transform="translate(2.9830495,10.238054)" />
  </g>
</svg>
